svg/horse.svg

<svg xmlns="http://www.w3.org/2000/svg" viewBox="0 0 100 100">
  <path fill="currentColor" fill-rule="evenodd" d="M72 1h-4v10h-2V2h-4v10h-2v18h2v13H18v56h6V71h5v23h5V71h27v28h7V71h4v23h8V69h-6V30h18V12H74v-1h-2V1Z" clip-rule="evenodd"/>
  <path d="M21 40H11v3H7v23h4v8h10V40ZM58 7h25v7H64v34H53v-4h-4V16h4v-4h5V7Z"/>
  <path d="M76 15h4v4h-4v-4Z"/>
</svg>

<svg width="100" height="100" viewBox="0 0 100 100" fill="none" xmlns="http://www.w3.org/2000/svg">
<path fill-rule="evenodd" clip-rule="evenodd" d="M72 1H68V11H66V2H62V11V12H60V30H62V43H18V67V71V99H24V71H29V94H34V71H61V99H68V71H72V94H80V69H74V45V43V30H92V12H74V11H72V1Z" fill="#8D5D31"/>
<path d="M21 40H11V43H7V66H11V74H21V40Z" fill="black"/>
<path d="M58 7H83V14H64V48H53V44H49V16H53V12H58V7Z" fill="black"/>
<path d="M76 15H80V19H76V15Z" fill="black"/>
</svg>
